X: 644
T: Elvedâ Dost Deli Gönül
C: (Anonim)
O: Turkey
F: http://compmusic.upf.edu/node/140
N: evic--rumeliturkusu--aksak--elveda_dost--rumeli
N: makam= evic
N: form= rumeliturkusu
N: usul= aksak = 9/8
M: 9/8
L: 1/16
K: C _1/4B ^f ^c 
Q: 1/4=174
%%MIDI tuningsystem comma53
f3=c' b2a2 g2f2 e4 d2 | cd efag =feed d=cc2 B2A2  | 
w:  ARANAĞME  |   | 
A3e edd=c cBBA ABAG F^3/4E | FG AB=c2 BAAG GFF4z2  | 
w:   |   | 
f3=c' b2a2 g2f2 e4 d2 | cd efag =feed d=cc2 B2A2  | 
w:  ARANAĞME  |   | 
A3e edd=c cBBA ABAG F^3/4E | FG AB=c2 BAAG GFF3f^3/4eg  | 
w:   |   | 
f4 f2f2 f4 a4 g2 | f4g2 g2f4^3/4e4f2  | \
w:  *  El ve dâ   |  dost  de li  gö nül   | 
d4 d4 ^3/4e2f2 g2a4 | f2 g2f2 ^3/4e2d4g4f2  | 
w:  el ve dâ    |  Ca *  *  *  nım  of   | 
e4 =f3e eddc d4 z2 | d3c=B2 c2d2 c2d4z2  | \
w:  sen  gel  *  gel  *  a *  man    |  SAZ  | 
e3d e2f2 g2a2 g2=f2 e2 | 
w:  Baş  *  yas *  tık *  ta   | 
=fe fge2 d2d=c dec4B2  | d4 d4 =c2d2 e4 d2 | \
w:  e *  *  *  lâ  *  göz *  *  *  ler   |  uy ku da    | 
=c4B4A2 B2c2 B2A2  | 
w:   | 
A3G G3F F8 z2 | F2 G2A2 B2d4=c2 B2A2  | \
w:  Uy *  ku *  da   |  yâr   | 
A3G G3F F8 z2 | d4d2 d2d=c dec4B2  | 
w:  uy *  ku *  da    |  Ben  sa ra ma *  *  *  dım   | 
d2d6 d=cde c4 B2 | d4d4=c2 d2e4d2  | \
w:  sa ran la *  *  *  ra   |  aşk_ ol sun    | 
=c4 B4 A2B2 c2B2 A2 | 
w:   | 
A3GG3FF8z2  | F2G2 A2B2 d4 =c2B2 A2 | \
w:  Aşk_ *  ol *  sun   |  yâr   | 
A3GG3FF8z2  | d4 d2d2 d=cde c4 B2 | 
w:  aşk_ *  ol *  sun    |  Ben  sa ra ma *  *  *  dım   | 
d2 d6d=c dec4B2  | d4 d4 =c2d2 e4 d2 | \
w:  sa ran la *  *  *  ra   |  aşk_ ol sun    | 
=c4B4A2 B2c2 B2A2  | 
w:   | 
A3G G3F F8 z2 | F2 G2A2 B2d4=c2 B2A2  | \
w:  Aşk_ *  ol *  sun   |  yâr   | 
A3G G3F F8 z2 | f3=c'b2 a2g2 f2e4d2  | 
w:  aşk_ *  ol *  sun    |  ARANAĞME  | 
cdef ag=fe edd=c c2B2 A2 | A3eed d=ccB BAAB AGF^3/4E  | 
w:   |   | 
FGAB =c2BA AGGF F4 z2 | f3=c'b2 a2g2 f2e4d2  | 
w:   |  ARANAĞME  | 
cdef ag=fe edd=c c2B2 A2 | A3eed d=ccB BAAB AGF^3/4E  | 
w:   |   | 
FGAB =c2BA AGGF F3f ^3/4eg | f4f2 f2f4a4g2  | 
w:   |  *  El ve dâ   | 
f4 g2g2 f4 ^3/4e4 f2 | d4d4^3/4e2 f2g2 a4  | \
w:  dost  de li  gö nül   |  el ve dâ    | 
f2g2 f2^3/4e2 d4 g4 f2 | e4=f3eed dcd4z2  | 
w:  Ca *  *  *  nım  of   |  sen  gel  *  gel  *  a *  man    | 
d3c =B2c2 d2c2 d4 z2 | e3de2 f2g2 a2g2 =f2e2  | \
w:  SAZ  |  Baş  *  yas *  tık *  ta   | 
=fefg e2d2 d=cde c4 B2 | 
w:  e *  *  *  lâ  *  göz *  *  *  ler   | 
d4d4=c2 d2e4d2  | =c4 B4 A2B2 c2B2 A2 | \
w:  uy ku da    |   | 
A3GG3FF8z2  | F2G2 A2B2 d4 =c2B2 A2 | 
w:  Uy *  ku *  da   |  yâr   | 
A3GG3FF8z2  | d4 d2d2 d=cde c4 B2 | d2 d6d=c dec4B2  | 
w:  uy *  ku *  da    |  Ben  sa ra ma *  *  *  dım   |  sa ran la *  *  *  ra   | 
d4 d4 =c2d2 e4 d2 | =c4B4A2 B2c2 B2A2  | \
w:  aşk_ ol sun    |   | 
A3G G3F F8 z2 | F2 G2A2 B2d4=c2 B2A2  | 
w:  Aşk_ *  ol *  sun   |  yâr   | 
A3G G3F F8 z2 | d4d2 d2d=c dec4B2  | \
w:  aşk_ *  ol *  sun    |  Ben  sa ra ma *  *  *  dım   | 
d2d6 d=cde c4 B2 | 
w:  sa ran la *  *  *  ra   | 
d4d4=c2 d2e4d2  | =c4 B4 A2B2 c2B2 A2 | \
w:  aşk_ ol sun    |   | 
A3GG3FF8z2  | F2G2 A2B2 d4 =c2B2 A2 | 
w:  Aşk_ *  ol *  sun   |  yâr   | 
A3GG3FF8z2  | |


